symbolic/32x32/apps/distributor-logo-netbsd.svg

<svg width="32" height="32" version="1.1" xmlns="http://www.w3.org/2000/svg">
 <path d="m21.714844 3.0001713c-5.096869 0-8.568504 2.0429688-10.714844 2.0429688-0.773816 0-2.1289063-0.2539063-2.1289062-0.2539063a4.0004 4.0004 0 0 0-0.0976563-0.0175781c-0.2973544-0.1929886-0.5721516-0.4284938-0.9023437-0.5351563-1.1322667-0.3657576-2.0613997-0.1864773-2.5800782-0.0429687a4.0004 4.0004 0 0 0-0.8007812 0.3164062c-0.6097057 0.321782-1.3519825 0.8083395-1.9355469 1.875s-0.6476479 2.8566797-0.0625 4.0078121l8.9667965 17.638672-0.144531-0.320312c0.752646 1.870726 2.389917 3.463904 4.970703 3.279296 1.259967-0.09013 2.787364-0.578244 3.84961-1.984375 1.061857-1.405615 1.15051-3.618859 0.326172-5.068359-1.313072-2.403135-2.582019-4.557638-3.886719-6.796875 1.241029-0.515953 2.285301-1.169851 3.179687-1.699219 1.746797-1.033891 3.111925-1.441406 2.673828-1.441406 0.898415 0 1.279297 0.277344 1.279297 0.277344a4.0004 4.0004 0 0 0 6.160157-4.2792968 4.0004 4.0004 0 0 0-1.138672-3.921875s-2.381926-3.0761719-7.013672-3.0761719z" style="opacity:.2"/>
 <path d="m21.714844 2c-5.096869 0-8.568504 2.0429688-10.714844 2.0429688-0.773816 0-2.1289063-0.2539063-2.1289062-0.2539063a4.0004 4.0004 0 0 0-0.0976563-0.0175781c-0.2973544-0.1929886-0.5721516-0.4284938-0.9023437-0.5351563-1.1322667-0.3657576-2.0613997-0.1864773-2.5800782-0.0429687a4.0004 4.0004 0 0 0-0.8007812 0.3164062c-0.6097057 0.321782-1.3519825 0.8083395-1.9355469 1.875s-0.6476479 2.8566797-0.0625 4.0078125l8.9667965 17.638672-0.144531-0.320312c0.752646 1.870726 2.389917 3.463904 4.970703 3.279296 1.259967-0.09013 2.787364-0.578244 3.84961-1.984375 1.061857-1.405615 1.15051-3.618859 0.326172-5.068359-1.313072-2.403135-2.582019-4.557638-3.886719-6.796875 1.241029-0.515953 2.285301-1.169851 3.179687-1.699219 1.746797-1.033891 3.111925-1.441406 2.673828-1.441406 0.898415 0 1.279297 0.277344 1.279297 0.277344a4.0004 4.0004 0 0 0 6.160157-4.2792971 4.0004 4.0004 0 0 0-1.138672-3.921875s-2.381926-3.0761719-7.013672-3.0761719z" style="fill:#f16813"/>
 <path d="m21.714286 7.0001711c-3.571429 0-7.072129 2.0430001-10.714286 2.0430001-1.4285714 0-3-0.3507618-3-0.3507618l3 5.3077616h1.428571c3.626559 0 7.142858-4 10-4 2.142858 0 3.571429 1 3.571429 1s-1.428142-1.9569997-3.571-1.9569997c-3.571428 0-5.429 0.9569997-5.429 0.9569997s2-1.9999997 5.428571-1.9859997c1.42856 0.00583 3.571429 0.986 3.571429 0.986s-2.142857-2.0000002-4.285714-2.0000002zm-15.356383 1.0475821c-0.2918079 0.1540063-0.391115 0.3531613-0.3004464 0.5315292l8.9670416 17.639256c0.231078 0.574352 0.672866 0.803281 0.975502 0.781633 0.95519-0.06833 1.230816-0.652836 0.985108-1.084367-3.331856-6.103335-6.732033-11.515554-10.071108-17.615633-0.1588164-0.3-0.3841235-0.3-0.5560972-0.2524181z" style="opacity:.2"/>
 <path d="m 21.714286,5.9999998 c -3.571429,0 -7.072129,2.0430001 -10.714286,2.0430001 -1.4285714,0 -3,-0.3507618 -3,-0.3507618 L 11,13 h 1.428571 c 3.626559,0 7.142858,-4 10,-4 C 24.571429,9 26,10 26,10 26,10 24.571858,8.043 22.429,8.043 18.857572,8.043 17,9 17,9 17,9 19,7 22.428571,7.014 23.857131,7.0198333 26,8 26,8 26,8 23.857143,5.9999998 21.714286,5.9999998 Z M 6.3579028,7.0475819 C 6.0660949,7.2015882 5.9667878,7.4007432 6.0574564,7.5791111 L 15.024498,25.218367 C 15.255576,25.792719 15.697364,26.021648 16,26 16.95519,25.931673 17.230816,25.347164 16.985108,24.915633 13.653252,18.812298 10.253075,13.400079 6.914,7.3 6.7551836,7 6.5298765,7 6.3579028,7.0475819 Z" style="fill:#ffffff"/>
 <path d="m21.714844 2c-5.096869 0-8.568504 2.0429688-10.714844 2.0429688-0.773816 0-2.1289064-0.2539063-2.1289062-0.2539063a4.0004 4.0004 0 0 0-0.0976563-0.0175781c-0.2973544-0.1929886-0.5721516-0.4284938-0.9023437-0.5351563-1.1322667-0.3657576-2.0613997-0.1864773-2.5800782-0.0429687a4.0004 4.0004 0 0 0-0.8007812 0.3164062c-0.6097057 0.321782-1.3519825 0.8083395-1.9355469 1.875-0.376265 0.687751-0.5318471 1.6755656-0.4414063 2.5996094 0.0544894-0.592101 0.2001076-1.1585547 0.4414063-1.5996094 0.5835644-1.0666605 1.3258412-1.553218 1.9355469-1.875a4.0004 4.0004 0 0 1 0.8007812-0.3164062c0.5186785-0.1435086 1.4478115-0.3227889 2.5800782 0.0429687 0.3301921 0.1066625 0.6049893 0.3421677 0.9023437 0.5351563a4.0004 4.0004 0 0 1 0.0976563 0.0175781c-2e-7 0 1.3550902 0.2539063 2.1289062 0.2539063 2.14634 0 5.617975-2.0429688 10.714844-2.0429688 4.631746 0 7.013672 3.0761719 7.013672 3.0761719a4.0004 4.0004 0 0 1 1.230468 2.4140625 4.0004 4.0004 0 0 0-1.230468-3.4140625s-2.381926-3.0761719-7.013672-3.0761719zm8.246094 7.484375a4.0004 4.0004 0 0 1-0.09375 0.5136719 4.0004 4.0004 0 0 1 0.091796 0.4804691 4.0004 4.0004 0 0 0 0.001954-0.994141zm-12.927735 7.447266c-0.152761 0.070141-0.299852 0.142825-0.458984 0.208984 1.3047 2.239237 2.573647 4.39374 3.886719 6.796875 0.289491 0.509036 0.459795 1.114779 0.521484 1.744141 0.091611-0.973192-0.079927-1.967715-0.521484-2.744141-1.15754-2.118485-2.284055-4.045431-3.427735-6.005859z" style="fill:#ffffff;opacity:.2"/>
</svg>

<svg width="32" height="32" xmlns="http://www.w3.org/2000/svg"><path d="M21.715 3C16.618 3 13.146 5.043 11 5.043c-.774 0-2.129-.254-2.129-.254a4 4 0 0 0-.098-.017c-.297-.193-.572-.429-.902-.536a4.403 4.403 0 0 0-2.58-.042 4 4 0 0 0-.8.316c-.61.322-1.353.808-1.936 1.875s-.648 2.857-.063 4.008L11.46 28.03l-.145-.32c.753 1.87 2.39 3.464 4.971 3.28 1.26-.09 2.788-.579 3.85-1.985 1.062-1.406 1.15-3.619.326-5.068-1.313-2.403-2.582-4.558-3.887-6.797 1.241-.516 2.286-1.17 3.18-1.7 1.747-1.033 3.112-1.44 2.674-1.44.898 0 1.279.277 1.279.277a4 4 0 0 0 6.16-4.28 4 4 0 0 0-1.138-3.922S26.347 3 21.715 3z" style="opacity:.2"/><path d="M21.715 2C16.618 2 13.146 4.043 11 4.043c-.774 0-2.129-.254-2.129-.254a4 4 0 0 0-.098-.018c-.297-.193-.572-.428-.902-.535a4.403 4.403 0 0 0-2.58-.043 4 4 0 0 0-.8.317c-.61.322-1.353.808-1.936 1.875s-.648 2.856-.063 4.008L11.46 27.03l-.145-.32c.753 1.87 2.39 3.464 4.971 3.28 1.26-.09 2.788-.579 3.85-1.985 1.062-1.406 1.15-3.619.326-5.068-1.313-2.404-2.582-4.558-3.887-6.797 1.241-.516 2.286-1.17 3.18-1.7C21.5 13.408 22.866 13 22.428 13c.898 0 1.279.277 1.279.277a4 4 0 0 0 6.16-4.279 4 4 0 0 0-1.138-3.922S26.347 2 21.715 2z" style="fill:#f16813"/><path d="M21.714 7C18.143 7 14.642 9.043 11 9.043c-1.429 0-3-.35-3-.35L11 14h1.429c3.626 0 7.142-4 10-4C24.57 10 26 11 26 11s-1.428-1.957-3.571-1.957C18.858 9.043 17 10 17 10s2-2 5.429-1.986C23.857 8.02 26 9 26 9s-2.143-2-4.286-2zM6.358 8.048c-.292.154-.391.353-.3.531l8.966 17.64c.232.574.673.803.976.781.955-.068 1.23-.653.985-1.084C13.653 19.812 10.253 14.4 6.914 8.3c-.159-.3-.384-.3-.556-.252z" style="opacity:.2"/><path d="M21.714 6C18.143 6 14.642 8.043 11 8.043c-1.429 0-3-.35-3-.35L11 13h1.429c3.626 0 7.142-4 10-4C24.57 9 26 10 26 10s-1.428-1.957-3.571-1.957C18.858 8.043 17 9 17 9s2-2 5.429-1.986C23.857 7.02 26 8 26 8s-2.143-2-4.286-2zM6.358 7.048c-.292.154-.391.353-.3.531l8.966 17.64c.232.574.673.803.976.781.955-.068 1.23-.653.985-1.084C13.653 18.812 10.253 13.4 6.914 7.3c-.159-.3-.384-.3-.556-.252z" style="fill:#fff"/><path d="M21.715 2C16.618 2 13.146 4.043 11 4.043c-.774 0-2.129-.254-2.129-.254a4 4 0 0 0-.098-.018c-.297-.193-.572-.428-.902-.535a4.403 4.403 0 0 0-2.58-.043 4 4 0 0 0-.8.317c-.61.322-1.353.808-1.936 1.875-.377.688-.532 1.675-.442 2.6.055-.593.2-1.16.442-1.6C3.138 5.318 3.88 4.832 4.49 4.51a4 4 0 0 1 .801-.317 4.403 4.403 0 0 1 2.58.043c.33.107.605.342.902.535a4 4 0 0 1 .098.018s1.355.254 2.129.254C13.146 5.043 16.618 3 21.715 3c4.632 0 7.014 3.076 7.014 3.076a4 4 0 0 1 1.23 2.414 4 4 0 0 0-1.23-3.414S26.347 2 21.715 2zm8.246 7.484a4 4 0 0 1-.094.514 4 4 0 0 1 .092.48 4 4 0 0 0 .002-.994zm-12.928 7.448c-.153.07-.3.142-.459.209 1.305 2.239 2.574 4.393 3.887 6.797.29.509.46 1.114.521 1.744.092-.974-.08-1.968-.521-2.744-1.158-2.119-2.284-4.046-3.428-6.006z" style="fill:#fff;opacity:.2"/></svg>
